X: 11468
T: Echo, The
R: waltz
M: 3/4
K: Cmajor
G|G>e c G>e c|(3B,/D/F/ A G (3B/d/f/ a g|G>e c G>e c|(3G/B/d/ (3G/B/d/ (3g/a/b/ c z||
e/d/|d>ed/e/ d>ed/e/|d>ed/e/ d/e/d/e/d/e/|d/e/d/e/d/e/ d/c/B/A/ G|d/c/B/A/ G z4||

